!!!COM: Fe/licien David
!!!CNT: Francais
!!!TXO: Francais
!!!OTL: Re\verie
!!!LYR: Mme. E. Tourneux de Voves
!!!ENC: Jacob Pegg
!!!YOR: Romantic French Song 1830-1870, David Tunley, ed., New York: Garland Publishing, Inc., 1995
!!!ODT: 1845/
!!NB: Vocal melody and text only encoded.
**kern	**silbe
*clef G2	*
*k[b-e-a-]	*
*M4/4	*
=1	=1
1r	.
=2	=2
{4.ee-	{Oh!
8ee-	dor-
(8dd	-mir
8cc)	|
8b-	sous
8a	votre
=3	=3
(8g	om-
8cc)	|
4b-	-bre,
4r	.
4b-	Beaux
=4	=4
4.cc	ar-
8cc	-bes
4.f	de
8f	Cha-
=5	=5
2a-	-ren-
4g}	-ce}
4r	.
=6	=6
{4ee-	{Lais-
8.ee-	-ser
16ee-	cou-
(8dd	-ler
8cc)	|
(8b-	sans
8a-)	|
=7	=7
(8g	nom-
8cc)	|
4b-	-bre
4r	.
4b-	Ses
=8	=8
4.b-	jours
8b-	dans
4.a-	le
8g	si-
=9	=9
2f	-len-
2e-}	-ce}
=10	=10
1r	.
=11	=11
{4b-	{Pau-
8b-	-pie\-
8b-	-re
4.b-	de-
8b-	-mi-
=12	=12
(8.b-	-clo-
16f)	|
4f}	-se}
4r	.
8r	.
{8f	{E-
=13	=13
8dd	-cou-
8dd	-ter
8b-	dans
8cc	les
4.dd	fleurs
8f	L'a-
=14	=14
8dd	-beil-
8dd	-le
8b-	qui
8cc	se
4dd	po-
8dd	-se
8b-	Et
=15	=15
4.ee-	chan-
8d	-te
(4cc	son
8.dd)	|
16cc	bon-
=16	=16
2.b-}	-heur;}
4r	.
=17	=17
{4a-	{En-
8a-	-ten-
8a-	-dre
4g	le
(8a-	ruis-
8b-)	|
=18	=18
2.cc	-seau
8.cc	Qui
16cc	ge/-
=19	=19
4cc	-mit
8b-	et
8a-	mur-
(4.g	-mu-
16a-	|
16b-)	|
=20	=20
2a-}	-re,}
2r	.
=21	=21
{4a-	{Et
8g	porte
8f	en
(4f	vos
8g)	|
8a-	Ram-
=22	=22
2.b-	-eaux
4b-	Son
=23	=23
4ee-	on-
(8g	de
8a-)	|
4.b-	frai-
8a-	-che et
=24	=24
(8.g	pu-
16f)	|
4e-}	-re!}
2r	.
!!voice tacit 4meas
=29	=29
{4.b-	{Puis,
8b-	le
4b-	soir,
8b-	a\
8b-	pas-
=30	=30
2.b-}	-lent,}
4r	.
=31	=31
{4cc	{Mon-
8cc	-ter
8cc	sur
4cc	les
(8a-	cul-
8b-)	|
=32	=32
2cc	-li-
2cc	-nes,
=33	=33
4dd	Voir
8dd	le
8dd	so-
(4dd	-leil
8een)	|
8ff#	cou-
=34	=34
2.gg	-chant
8dd	Qui
8dd	s'en-
=35	=35
2ee-	-dort
4.dd	sur
8cc	les
=36	=36
4cc	ci-
4bn}	-mes:}
2r	.
=37	=37
{4dd	{Vi-
8dd	-vre
8dd	comme
(4dd	u-
8cc)	|
8b-	-ne
=38	=38
2.b-	fleur,
8.b-	Sans
16b-	re-
=39	=39
2cc-	-gret,
4.b-	sans
8a-	de/-
=40	=40
2.g}	-sir,}
4r	.
=41	=41
{4g	{Ne
8g	pas
8g	sen-
4.g	-tir
8g	son
=42	=42
1g	coeur,
=43	=43
!!'timing error-' gracenote
4e-	Et
8e-	dou-
8e-	-ce-
4e-	-ment
(4cc	mou-
8b-q)	|
=44	=44
[1b-	-rir!
=45	=45
2b-]}	|}
*-	*-
